car-off.svg

<svg fill="currentColor" viewBox="0 0 24 24"><path d="M20.5 19.85 6.41 5.76l-4-4L1.11 3l3.46 3.46L3 11v8a1 1 0 0 0 1 1h1a1 1 0 0 0 1-1v-1h10.11l4.73 4.73 1.27-1.27zM6.5 15A1.5 1.5 0 0 1 5 13.5 1.5 1.5 0 0 1 6.5 12 1.5 1.5 0 0 1 8 13.5 1.5 1.5 0 0 1 6.5 15M5 10l.78-2.33L8.11 10zm12.5-4.5L19 10h-5.8l2.92 2.92c.38-.75 1.25-1.06 2-.71.75.36 1.06 1.26.71 2-.15.29-.4.56-.71.71L21 17.8V11l-2.08-6c-.21-.6-.78-1-1.42-1H7.2l1.5 1.5z"/></svg>

<svg  viewBox="0 0 24 24" fill="currentColor"><path  d="M20.5,19.85L6.41,5.76L2.41,1.76L1.11,3L4.57,6.46L3,11V19A1,1 0 0,0 4,20H5A1,1 0 0,0 6,19V18H16.11L20.84,22.73L22.11,21.46L20.5,19.85M6.5,15A1.5,1.5 0 0,1 5,13.5A1.5,1.5 0 0,1 6.5,12A1.5,1.5 0 0,1 8,13.5A1.5,1.5 0 0,1 6.5,15M5,10L5.78,7.67L8.11,10H5M17.5,5.5L19,10H13.2L16.12,12.92C16.5,12.17 17.37,11.86 18.12,12.21C18.87,12.57 19.18,13.47 18.83,14.21C18.68,14.5 18.43,14.77 18.12,14.92L21,17.8V11L18.92,5C18.71,4.4 18.14,4 17.5,4H7.2L8.7,5.5H17.5Z"/></svg>
